X:936
T:Hoch Hey Johnny Lad
T:Jerry O'Sullivan's
R:reel
H:Might originally be a strathspey or a fling
D:L\'unasa: Kinnitty Sessions
Z:id:hn-reel-936
M:C|
L:1/8
K:G
G2GB AGAB | GEDE ~A3B | GFGB AGAB | (3GFE DE G4 :| 
|: degB AGAB | degd e3d | degB AGAB | (3GFE DE G4 :| 

